X: 8
T: The Rakes Of Clonmel
R: jig
M: 6/8
L: 1/8
K: Ador
cBA BAG|EAA A2B|cBc Adc|BGF G3|
gfg age|dcB g2f|edc Bcd|1e^cA fed:||2e^cA A2^g||
ae^c ae^c|A^GB A2f|gdB gdB|GFA GAB|
cBc d^cd|e^de a2g|edc Bcd|1e^cA A2^g:||2e^cA fed||


Tune 1130	Setting 1130

